icon/fa/tape.svg

<svg xmlns="http://www.w3.org/2000/svg" viewBox="0 0 576 512"><!--! Font Awesome Free 6.1.2 by @fontawesome - https://fontawesome.com License - https://fontawesome.com/license/free (Icons: CC BY 4.0, Fonts: SIL OFL 1.1, Code: MIT License) Copyright 2022 Fonticons, Inc.--><path d="M288 256c0 35.3-28.7 64-64 64s-64-28.7-64-64 28.7-64 64-64 64 28.7 64 64zm256 160c17.7 0 32 14.3 32 32s-14.3 32-32 32H224C100.3 480 0 379.7 0 256S100.3 32 224 32s224 100.3 224 224c0 62.7-25.7 119.3-67.2 160H544zm-320-64c53 0 96-43 96-96 0-53.9-43-96-96-96-53.9 0-96 42.1-96 96 0 53 42.1 96 96 96z"/></svg>

<svg xmlns="http://www.w3.org/2000/svg" viewBox="0 0 576 512" height="1em" width="1em">
<!--! Font Awesome Free 6.1.2 by @fontawesome - https://fontawesome.com License - https://fontawesome.com/license/free (Icons: CC BY 4.0, Fonts: SIL OFL 1.1, Code: MIT License) Copyright 2022 Fonticons, Inc.-->
  <path d="M288 256C288 291.3 259.3 320 224 320C188.7 320 160 291.3 160 256C160 220.7 188.7 192 224 192C259.3 192 288 220.7 288 256zM544 416C561.7 416 576 430.3 576 448C576 465.7 561.7 480 544 480H224C100.3 480 0 379.7 0 256C0 132.3 100.3 32 224 32C347.7 32 448 132.3 448 256C448 318.7 422.3 375.3 380.8 416H544zM224 352C277 352 320 309 320 256C320 202.1 277 160 224 160C170.1 160 128 202.1 128 256C128 309 170.1 352 224 352z"/>
</svg>
